Costumes/glass_water-a.svg

<?xml version="1.0" encoding="UTF-8" standalone="no"?>
<svg
   version="1.1"
   width="74.5"
   height="114.05883"
   viewBox="-1 -1 74.5 114.05883"
   id="svg12"
   sodipodi:docname="glass_water-a.svg"
   xmlns:inkscape="http://www.inkscape.org/namespaces/inkscape"
   xmlns:sodipodi="http://sodipodi.sourceforge.net/DTD/sodipodi-0.dtd"
   xmlns="http://www.w3.org/2000/svg"
   xmlns:svg="http://www.w3.org/2000/svg">
  <defs
     id="defs16" />
  <sodipodi:namedview
     id="namedview14"
     pagecolor="#ffffff"
     bordercolor="#000000"
     borderopacity="0.25"
     inkscape:showpageshadow="2"
     inkscape:pageopacity="0.0"
     inkscape:pagecheckerboard="0"
     inkscape:deskcolor="#d1d1d1" />
  <!-- Exported by Scratch - http://scratch.mit.edu/ -->
  <g
     id="ID0.663632448296994"
     transform="translate(-203,-133.45588)">
    <g
       id="ID0.24732984602451324"
       transform="translate(201,132)">
      <g
         id="ID0.008622032590210438">
        <path
           id="ID0.09444683231413364"
           fill="#cccccc"
           stroke="#000000"
           stroke-width="2"
           d="m 210.5,121.5 c 9.794,0 18.669,0.364 25.096,0.953 6.426,0.588 10.404,1.4 10.404,2.297 0,0.897 -3.978,1.709 -10.404,2.297 -6.427,0.589 -15.302,0.953 -25.096,0.953 -9.794,0 -18.669,-0.364 -25.096,-0.953 -6.426,-0.588 -10.404,-1.4 -10.404,-2.297 0,-0.897 3.978,-1.709 10.404,-2.297 6.427,-0.589 15.302,-0.953 25.096,-0.953 z"
           transform="matrix(1,0,0,1.5705882,-172.5,-188.8)" />
        <path
           id="ID0.1540069291368127"
           fill="#56aaff"
           stroke="#000000"
           stroke-width="2"
           d="m 243.5,251 c 4.69,0 8.94,0.364 12.018,0.953 3.077,0.588 4.982,1.4 4.982,2.297 0,0.897 -1.905,1.709 -4.982,2.297 -3.078,0.589 -7.328,0.953 -12.018,0.953 -4.69,0 -8.94,-0.364 -12.018,-0.953 -3.077,-0.588 -4.982,-1.4 -4.982,-2.297 0,-0.897 1.905,-1.709 4.982,-2.297 C 234.56,251.364 238.81,251 243.5,251 Z"
           transform="matrix(1,0,0,1.6470588,-203.5,-311.25)" />
        <path
           id="ID0.37185795046389103"
           fill="none"
           stroke="#000000"
           stroke-width="2"
           stroke-linecap="round"
           d="m 278,157 -17,99"
           transform="translate(-203.5,-149)" />
        <path
           id="ID0.34106422076001763"
           fill="none"
           stroke="#000000"
           stroke-width="2"
           stroke-linecap="round"
           d="m 205.5,156.5 20.5,100"
           transform="translate(-203.5,-149)" />
      </g>
      <path
         id="ID0.8030695081688464"
         fill="#56aaff"
         stroke="#000000"
         stroke-width="2"
         d="m 244.25,189.5 c 7.518,0 14.331,0.448 19.264,1.172 4.933,0.724 7.986,1.724 7.986,2.828 0,1.104 -3.053,2.104 -7.986,2.828 -4.933,0.724 -11.746,1.172 -19.264,1.172 -7.518,0 -14.331,-0.448 -19.264,-1.172 -4.933,-0.724 -7.986,-1.724 -7.986,-2.828 0,-1.104 3.053,-2.104 7.986,-2.828 4.933,-0.724 11.746,-1.172 19.264,-1.172 z"
         transform="matrix(1.0530974,0,0,1.15,-218.4,-178.75)" />
    </g>
    <path
       id="ID0.850439025554806"
       fill="#56aaff"
       stroke="#56aaff"
       stroke-width="2"
       stroke-linecap="round"
       d="m 259.75,252.25 9.75,-56.25 -5,1.5 -7,1 -8.75,1 h -6.5 l -8.25,-0.25 -6.25,-0.5 -7,-1 -5.25,-1.5 11.5,56.5 4.25,-2 3.75,-1 4.25,-0.5 h 5 l 4.25,0.25 4,0.5 3.5,1 z"
       transform="translate(-2.5,-17)" />
    <path
       id="ID0.6659666523337364"
       fill="#cccccc"
       stroke="#cccccc"
       stroke-width="2"
       stroke-linecap="round"
       d="m 275.5,159.25 -6.75,2.25 -9,1.25 -8.5,0.5 -8.5,0.25 -9.25,-0.25 -9.75,-0.5 -9.25,-1 -6.25,-1.5 6,29.25 6,-1.75 6.75,-1 7.75,-0.5 h 7.5 7.25 l 7.25,0.5 6.75,0.75 4.5,1 2.65,1.1 z"
       transform="translate(-2.5,-17)" />
  </g>
</svg>

<svg version="1.1" width="275" height="238" viewBox="-1 -1 275 238" xmlns="http://www.w3.org/2000/svg" xmlns:xlink="http://www.w3.org/1999/xlink">
  <!-- Exported by Scratch - http://scratch.mit.edu/ -->
  <g id="ID0.663632448296994" transform="matrix(1, 0, 0, 1, -201, -132)">
    <g id="ID0.24732984602451324" transform="matrix(1, 0, 0, 1, 201, 132)">
      <g id="ID0.008622032590210438">
        <path id="ID0.09444683231413364" fill="#CCCCCC" stroke="#000000" stroke-width="2" d="M 210.500 121.500 C 220.294 121.500 229.169 121.864 235.596 122.453 C 242.022 123.041 246 123.853 246 124.750 C 246 125.647 242.022 126.459 235.596 127.047 C 229.169 127.636 220.294 128 210.500 128 C 200.706 128 191.831 127.636 185.404 127.047 C 178.978 126.459 175 125.647 175 124.750 C 175 123.853 178.978 123.041 185.404 122.453 C 191.831 121.864 200.706 121.500 210.500 121.500 Z " transform="matrix(1, 0, 0, 1.570588231086731, -172.5, -188.8)"/>
        <path id="ID0.1540069291368127" fill="#56AAFF" stroke="#000000" stroke-width="2" d="M 243.500 251 C 248.190 251 252.440 251.364 255.518 251.953 C 258.595 252.541 260.500 253.353 260.500 254.250 C 260.500 255.147 258.595 255.959 255.518 256.547 C 252.440 257.136 248.190 257.500 243.500 257.500 C 238.810 257.500 234.560 257.136 231.482 256.547 C 228.405 255.959 226.500 255.147 226.500 254.250 C 226.500 253.353 228.405 252.541 231.482 251.953 C 234.560 251.364 238.810 251 243.500 251 Z " transform="matrix(1, 0, 0, 1.6470588445663452, -203.5, -311.25)"/>
        <path id="ID0.37185795046389103" fill="none" stroke="#000000" stroke-width="2" stroke-linecap="round" d="M 278 157 L 261 256 " transform="matrix(1, 0, 0, 1, -203.5, -149)"/>
        <path id="ID0.34106422076001763" fill="none" stroke="#000000" stroke-width="2" stroke-linecap="round" d="M 205.500 156.500 L 226 256.500 " transform="matrix(1, 0, 0, 1, -203.5, -149)"/>
      </g>
      <path id="ID0.8030695081688464" fill="#56AAFF" stroke="#000000" stroke-width="2" d="M 244.250 189.500 C 251.768 189.500 258.581 189.948 263.514 190.672 C 268.447 191.396 271.500 192.396 271.500 193.500 C 271.500 194.604 268.447 195.604 263.514 196.328 C 258.581 197.052 251.768 197.500 244.250 197.500 C 236.732 197.500 229.919 197.052 224.986 196.328 C 220.053 195.604 217 194.604 217 193.500 C 217 192.396 220.053 191.396 224.986 190.672 C 229.919 189.948 236.732 189.500 244.250 189.500 Z " transform="matrix(1.0530973672866821, 0, 0, 1.149999976158142, -218.4, -178.75)"/>
    </g>
    <path id="ID0.850439025554806" fill="#56AAFF" stroke="#56AAFF" stroke-width="2" stroke-linecap="round" d="M 259.750 252.250 L 269.500 196 L 264.500 197.500 L 257.500 198.500 L 248.750 199.500 L 242.250 199.500 L 234 199.250 L 227.750 198.750 L 220.750 197.750 L 215.500 196.250 L 227 252.750 L 231.250 250.750 L 235 249.750 L 239.250 249.250 L 244.250 249.250 L 248.500 249.500 L 252.500 250 L 256 251 L 259.750 252.250 Z " transform="matrix(1, 0, 0, 1, -2.5, -17)"/>
    <path id="ID0.6659666523337364" fill="#CCCCCC" stroke="#CCCCCC" stroke-width="2" stroke-linecap="round" d="M 275.500 159.250 L 268.750 161.500 L 259.750 162.750 L 251.250 163.250 L 242.750 163.500 L 233.500 163.250 L 223.750 162.750 L 214.500 161.750 L 208.250 160.250 L 214.250 189.500 L 220.250 187.750 L 227 186.750 L 234.750 186.250 L 242.250 186.250 L 249.500 186.250 L 256.750 186.750 L 263.500 187.500 L 268 188.500 L 270.650 189.600 L 275.500 159.250 Z " transform="matrix(1, 0, 0, 1, -2.5, -17)"/>
  </g>
</svg>
